Obsidian-SemiLight/actions/22s/prevuntranslated.svg

<svg viewBox="0 0 22 22" xmlns="http://www.w3.org/2000/svg"><path d="m16.292969 4-3.292969 3.2929688-.207031.2070312.207031.2070312 3.292969 3.2929688.707031-.707031-2.292969-2.292969h4.292969v-1h-4.292969l2.292969-2.2929688zm-11.292969 11v1 1h11v-1-1h-1v1h-9v-1z" fill="#4d4d4d"/></svg>

<svg xmlns="http://www.w3.org/2000/svg" viewBox="0 0 22 22">
  <defs id="defs3051">
    <style type="text/css" id="current-color-scheme">
      .ColorScheme-Text {
        color:#4d4d4d;
      }
      </style>
  </defs>
 <path 
     style="fill:currentColor;fill-opacity:1;stroke:none" 
     d="M 16.292969 4 L 13 7.2929688 L 12.792969 7.5 L 13 7.7070312 L 16.292969 11 L 17 10.292969 L 14.707031 8 L 19 8 L 19 7 L 14.707031 7 L 17 4.7070312 L 16.292969 4 z M 5 15 L 5 16 L 5 17 L 16 17 L 16 16 L 16 15 L 15 15 L 15 16 L 6 16 L 6 15 L 5 15 z "
	 class="ColorScheme-Text"
     />
</svg>
